public/logo_voron.svg

<svg width="56" height="56" viewBox="0 0 56 56"
  xmlns="http://www.w3.org/2000/svg">
  <g>
    <path fill="var(--v-primary-base, #FF2300)" d="M 28.000213,10 12.41174,19.000322 V 37.000535 L 28.000213,46 43.58826,37.000535 V 19.000322 Z m -4.583938,8.214834 h 4.703068 l -6.432597,9.78538 H 16.984107 Z M 19.217154,37.785165 32.081918,18.214834 H 36.78413 L 23.918936,37.785165 Z m 13.366996,0 h -4.70221 l 6.431311,-9.784951 h 4.703069 z" />
  </g>
</svg>

<svg xmlns="http://www.w3.org/2000/svg" width="56" height="56" viewBox="0 0 56 56">
  <path fill="var(--v-primary-base, #ff2300)" d="m28 10-15.588 9v18L28 46l15.588-9V19Zm-4.584 8.215h4.703L21.687 28h-4.703Zm-4.199 19.57 12.865-19.57h4.702L23.92 37.785Zm13.367 0h-4.702L34.313 28h4.703z"/>
</svg>
